img/svg/online-school/play-circle.svg

<svg width="24" height="24" viewBox="0 0 24 24" fill="none" xmlns="http://www.w3.org/2000/svg">
<g clip-path="url(#clip0_6667_23782)">
<path d="M9.93699 7.98795L9.9374 7.98824L15.1874 11.7382L15.1876 11.7384C15.2292 11.7681 15.2632 11.8073 15.2866 11.8529C15.3101 11.8984 15.3223 11.9488 15.3223 12C15.3223 12.0512 15.3101 12.1016 15.2866 12.1471C15.2632 12.1927 15.2292 12.2319 15.1876 12.2616L15.1874 12.2618L9.9374 16.0118L9.93707 16.012C9.889 16.0464 9.83239 16.0669 9.77344 16.0712C9.71449 16.0755 9.6555 16.0635 9.60294 16.0364C9.55038 16.0094 9.5063 15.9684 9.47554 15.9179C9.44477 15.8674 9.42852 15.8095 9.42857 15.7503V15.75V8.25L9.42857 8.24955C9.42851 8.19046 9.44474 8.1325 9.47547 8.08203C9.50621 8.03156 9.55026 7.99054 9.60279 7.96348C9.65534 7.93644 9.71433 7.92441 9.77328 7.92871C9.83226 7.93302 9.88891 7.95352 9.93699 7.98795ZM4.27233 19.7277C6.32184 21.7772 9.10156 22.9286 12 22.9286C14.8984 22.9286 17.6782 21.7772 19.7277 19.7277C21.7772 17.6782 22.9286 14.8984 22.9286 12C22.9286 9.10156 21.7772 6.32184 19.7277 4.27233C17.6782 2.22283 14.8984 1.07143 12 1.07143C9.10156 1.07143 6.32184 2.22283 4.27233 4.27233C2.22283 6.32184 1.07143 9.10156 1.07143 12C1.07143 14.8984 2.22283 17.6782 4.27233 19.7277ZM20.1822 20.1822C18.0122 22.3523 15.0689 23.5714 12 23.5714C8.93107 23.5714 5.98783 22.3523 3.81776 20.1822C1.6477 18.0122 0.428571 15.0689 0.428571 12C0.428571 8.93107 1.6477 5.98783 3.81776 3.81776C5.98783 1.6477 8.93107 0.428571 12 0.428571C15.0689 0.428571 18.0122 1.6477 20.1822 3.81776C22.3523 5.98783 23.5714 8.93107 23.5714 12C23.5714 15.0689 22.3523 18.0122 20.1822 20.1822Z" fill="#FBFBFB" stroke="#FBFBFB" stroke-width="0.857143"/>
</g>
<defs>
<clipPath id="clip0_6667_23782">
<rect width="24" height="24" fill="white"/>
</clipPath>
</defs>
</svg>

<svg width="24" height="24" fill="none" xmlns="http://www.w3.org/2000/svg"><g clip-path="url(#clip0_6667_23782)"><path d="M9.937 7.988h0l5.25 3.75h0a.32.32 0 010 .524h0l-5.25 3.75h0a.321.321 0 01-.508-.262v0-7.5h0a.321.321 0 01.508-.262zm-5.665 11.74A10.929 10.929 0 1019.728 4.272 10.929 10.929 0 004.272 19.728zm15.91.454A11.571 11.571 0 113.818 3.818a11.571 11.571 0 0116.364 16.364z" fill="#FBFBFB" stroke="#FBFBFB" stroke-width=".857"/></g><defs><clipPath id="clip0_6667_23782"><path fill="#fff" d="M0 0h24v24H0z"/></clipPath></defs></svg>
